X: 19089
T: Marylou's Reel
C: John Drewry (Oct 1990)
Z: John Chambers <jc:trillian.mit.edu>
%--------------------
K:
%
P: Marylou's Reel
C: J Duncan Keppie
Z: John Chambers <jc:trillian.mit.edu>
M: C|
L: 1/8
K: D
A2 \
|: "D"BA^GA F2F2 \
| BA^GA F2F2 \
| "A7"AGFG E2E2 \
| AGFG E2FE \
| "D"DCDF A,2A,2 \
| "Em"E^DEG B,2B,2 |
| "A7"CDEF GABc \
| "D"d2D2 D2A2 :|\
|: "D"^GABA FADA \
| FADA B,AA,A \
| "A6"^GABA =GAEA \
| GAEA CAA,A |
| "D"^GABA FADA \
| "A6"^GABA =GAEA \
| cBAG FEDC \
| D2F2 D4 :|
P: Davy Nick Nack
O: Trad
R: hornpipe, march
Z: 1997 by John Chambers <jc:trillian.mit.edu>
M: 4/4
L: 1/8
K: G
   D2 | "G"GFGA B2B2 | GFGA B2B2 |1,3 "D7"dcBc A4   | dcBc A2 :|2,4 "C"dcBc "D7"AcBA | "G"G2B2 G2 :|
|: Bc | "G"d3c  B2d2 | g2g2 d4   |1,3 "D7"dcBc A2A2 | dcBc A2 :|2,4 "C"dcBc "D7"AcBA | "G"G2B2 G2 :|
P: Gipsy Hornpipe
C: Niel Gow
R: reel, hornpipe
B: RSCDS 33-8
B: Astor's 24 Country Dances for the yer 1803
Z: 1997 by John Chambers <jc:trillian.mit.edu>
M: C
L: 1/8
K: C
|: c2 \
| "C"GcBc GcBc | ecgc "F"ac"C"gc | GcBc GcBc | "D7"e2d2 "G7"d4 | "C"GcBc GcBc |
| ecgc "F"ac"C"gc | "G"GcBd "/A"ca"/B"gf | "C"e2"F"c2 "C"c2 :: ef | "C"gagf efed | "F"cdcB "G7"AGFE |
| "C"EGcG "Am"EFGE | "Dm"F2D2 "G7"D2ef | "C"gagf efed | "F"cdcB "G7"AGFE | "C"EGcG "G7"Fagf | "C"e2"F"c2 "C"c2 :|
P: Miss Andy Campbell's Scotch Measure
C: William Marshall
N: By Wm.Marshall for A.McGlashan
B: RSCDS 19-8(II)
Z: 1997 by John Chambers <jc:trillian.mit.edu>
M: 4/4
L: 1/8
K: F
c \
| "F"BAGF "C7"c3B \
| "F"A2 c4 fg \
| a2gf "Bb"b3a \
| "C7"g2 G4 c2 \
| "F"BAGF "Dm"f3d \
| "G7"gafg "C"fedc |
| "Bb"dcBA "C7"BGcB \
| "F"A2 F4 :|\
|: cd/e/ \
| "F"fcAc f3c \
| "Bb"defc "F"BAGF \
| "Gm"GABc "G7"defg |
| "C"e2 c4 de \
| "F"f>gfe dcBA \
| "Gm"bagf "C7"e2dc \
| "Bb"dcBA "C7"BGcB \
| "F"A2 F4 :|
%%center Book19/19082-Marylous_Reel.abc

%%sep 1 1 500
%%sep 1 1 500

